X: 28203
T: Mrs. Crotty's Christening
R: reel
M: 4/4
K: Dmajor
~d3B BAFA|A2 dF BAFA|BEED E2E2|(3Bcd ef gfec|
dedA BAFA|A2 dF BAFA|BEEF E2 E2|(3Bcd ef d2 Ad:|
d2 A~d3 Ad|d2 ef gecA|d2 A~d3 FA|B2 AF E2 fe|
d2 A~d3 Ad|d2 ef gecA|d2 A~d3 FA|B2 AF E2 E2:|

